X:14
T:March of the Men of Harlech
% Four-part piano arrangement for standard notation.
C:English Words by John Oxenford/Welsh National Melody
S:Source "The One Hundred and One Best Songs" - The Cable Company - 1919 - Chicago, Illinois
M:4/4
L:1/4
Q:1/4=110
%%staves [(1 2) (3 4)]
%%NoDecos 3 no
%%NoDecos 4 no
%%DecosBelowSt 3 yes
%%DecosBelowSt 4 yes
K:Ab
V:1 clef=treble
"^With martial spirit throughout"A>>G F>>G | A B c A | d c B A | G F
w:1.~~Men of Har-lech! in the hol-low, Do ye hear, like rush-ing
w:~~'Tis the tramp of Sax-on foe-men, Sax-on spear-men, Sax-on
w:2.~~Rock-y steeps and pass-es nar-row Flash with spear and flight of
w:~~Hurl the reel-ing horse-men o-ver! Let the earth dead foe-men
w:3.~~Men of Har-lech! hon-or calls us, No proud Sax-on e'er ap-
w:~~Tho' our moth-ers may be weep-ing, Tho' our sis-ters may be
V:2 clef=treble
C>>C D>>E | E E E E | E E F F | E =D
V:3 clef=bass
%%MIDI transpose -24
%%jsastem=dn
a>>a a>>b | a g a a | g a d' b | b b
V:4 clef=bass
%%MIDI transpose -24
%%jsastem=dn
A>>A d>>d | c B A c | B c d =d | e B
V:1
G E | A>>G F>>G | A B c f | e<<c B>>c | A3 z :|
w:bil-low, Wave on wave that, surg-ing, fol-low Bat-tle's dis-tant sound?
w:bow-men; Be they knights, or hinds, or yeo-men, They shall bite the ground.
w:ar-row; Who would think of death or sor-row? Death is glo-ry now!
w:cov-er! Fate of friend, of wife, of lov-er, Tremb-les on a blow!
w:palls us! On we march, what-e'er be-falls us, Nev-er shall we fly!
w:keep-ing Watch for some who now are sleep-ing On the bat-tle field!
V:2
E E | E>>E D>>E | E E E A | A<<A G>>G | E3 z :|
V:3
b g | a>>a a>>b | a g a a | c'<<e' d'>>e' | c'3 z :|
V:4
e d | c>>c d>>d | c e a d | e<<e e>>e | A3 z :|
V:1
B>>A G>>A | B B z2 | e>>d c>>d | e e z2 | e>>d c>>d |
w:
w:Loose the folds a-sun-der, Flag we con-quer un-der! Plac-id skies that
w:Strands of life are riv-en, Blow for blow is giv-en, Dead-ly locks or
w:For-ward, light-ly bound-ing, Hear the trump-et sound-ing! For-ward ev-er,
V:2
G>>F E>>F | G G z2 | c>>B A>>B | c c z2 | c>>B A>>B |
V:3
g>>a b>>a | g g z2 | c'>>d' e'>>d' | c' c' z2 | c'>>d' e'>>d' |
V:4
e>>f g>>f | e e LE LE | a>>b c'>>b | a a LA LA | a>>b c'>>b |
V:1
e>>d c>>d | e3/4f/4 e3/4d/4 c3/4B/4 c3/4d/4 | e e z2 | f f e e |
w:
w:hear our cries Shall launch* their* bolts* in* thun-der! On-ward! 'tis our
w:bat-tle shocks When mer\-* cy* shrieks* to* heav-en! Men of Har-lech!
w:back-ward nev-er, This* proud* foe* a\-* stound-ing! Fight for fa-ther,
V:2
c>>B A>>B | c3/4d/4 c3/4B/4 A3/4G/4 A3/4B/4 | c c z2 | A A A A |
V:3
c'>>d' e'>>d' | c'3/4b/4 c'3/4d'/4 e' e'3/4d'/4 | c' c' z2 | d' d' [c'e'] [c'e'] |
V:4
a>>b c'>>b | a3/4g/4 a3/4b/4 c'3/4d'/4 c'3/4b/4 | a a LA LA | d d c c |
V:1
d d c c | B d/c/ B A | G F G E |
w:
w:coun-try needs us! He is* brav-est, he who leads us!
w:young or hoar-y, See your* ban-ner, Famed in sto-ry,
w: sis-ter, moth-er, Each is* bound to each as broth-er;
V:2
G G A A | F F F F | E =D E E |
V:3
[be'] [be'] [ae'] [c'e'] | d' f/=a/ b b | b b b g |
V:4
B B A c | d B/c/ d =d | e B e _d |
V:1
A>>G F>>G | A B c f | e<<c B>>c | A3 z |]
w:
w:Hon-or's self now proud-ly heeds us! Free-dom, God, and Right!
w:Strike for home, for life, for glo-ry! Nev-er will we yield!
w:With this faith in one an-oth-er We will win or die!
V:2
E>>E D>>E | E E E A | A<<A G>>G | E3 z |]
V:3
a>>a a>>b | a g a =b | c'<<e' d'>>e' | c'3 z |]
V:4
c>>c d>>d | c e a =d | e<<e e>>e | A3 z |]

